X: 606
P: Longways for as many as will
M: C|
L: 1/8
K: G
g2f2 g2f2 | g2^d2 e3f | g2ag f3e | e6 |]
ef |\
g2d2 d2e2 | d6 ed | cdcB ABAG | F3E D2de |\
d2G2 G2ef | e2d2 d2g2 | e2a2 (f3e/f/) | g6 |]

